styles/1/Numix/48/places/grey-network.svg

<?xml version="1.0" encoding="UTF-8" standalone="no"?>
<!-- Created with Inkscape (http://www.inkscape.org/) -->

<svg
   xmlns:dc="http://purl.org/dc/elements/1.1/"
   xmlns:cc="http://creativecommons.org/ns#"
   xmlns:rdf="http://www.w3.org/1999/02/22-rdf-syntax-ns#"
   xmlns:svg="http://www.w3.org/2000/svg"
   xmlns="http://www.w3.org/2000/svg"
   xmlns:sodipodi="http://sodipodi.sourceforge.net/DTD/sodipodi-0.dtd"
   xmlns:inkscape="http://www.inkscape.org/namespaces/inkscape"
   width="48"
   height="48"
   id="svg2"
   version="1.1"
   inkscape:version="0.91 r"
   sodipodi:docname="grey-network.svg">
  <defs
     id="defs4" />
  <sodipodi:namedview
     id="base"
     pagecolor="#ffffff"
     bordercolor="#666666"
     borderopacity="1.0"
     inkscape:pageopacity="0.0"
     inkscape:pageshadow="2"
     inkscape:zoom="8.8138918"
     inkscape:cx="11.396517"
     inkscape:cy="18.974413"
     inkscape:document-units="px"
     inkscape:current-layer="layer1"
     showgrid="true"
     inkscape:window-width="1280"
     inkscape:window-height="998"
     inkscape:window-x="0"
     inkscape:window-y="0"
     inkscape:window-maximized="1">
    <inkscape:grid
       type="xygrid"
       id="grid2990"
       empspacing="5"
       visible="true"
       enabled="true"
       snapvisiblegridlinesonly="true" />
  </sodipodi:namedview>
  <metadata
     id="metadata7">
    <rdf:RDF>
      <cc:Work
         rdf:about="">
        <dc:format>image/svg+xml</dc:format>
        <dc:type
           rdf:resource="http://purl.org/dc/dcmitype/StillImage" />
        <dc:title />
      </cc:Work>
    </rdf:RDF>
  </metadata>
  <g
     inkscape:label="Body"
     inkscape:groupmode="layer"
     id="layer1"
     transform="translate(0,-1004.3622)">
    <path
       style="font-size:medium;font-style:normal;font-variant:normal;font-weight:normal;font-stretch:normal;text-indent:0;text-align:start;text-decoration:none;line-height:normal;letter-spacing:normal;word-spacing:normal;text-transform:none;direction:ltr;block-progression:tb;writing-mode:lr-tb;text-anchor:start;baseline-shift:baseline;color:#000000;fill:#bdbdbd;fill-opacity:1;fill-rule:nonzero;stroke:none;stroke-width:3.00000024;marker:none;visibility:visible;display:inline;overflow:visible;enable-background:accumulate;font-family:Sans;-inkscape-font-specification:Sans"
       d="M 5.1875 8 C 4.511132 8.1439 3.984919 8.8086 4 9.5 L 4 37.5 C 4.000079 38.2853 4.714623 38.9999 5.5 39 L 42.5 39 C 43.285377 38.9999 43.999921 38.2853 44 37.5 L 44 12.53125 C 43.999921 11.74585 43.285377 11.03135 42.5 11.03125 L 28 11.03125 L 28 9.5 C 27.999921 8.7146 27.285377 8 26.5 8 L 5.5 8 C 5.396212 7.989 5.291288 7.989 5.1875 8 z M 23 17 L 24 17 C 28.41199 17 32 20.5881 32 25 C 32 29.4118 28.411697 33 23 33 C 19.587729 33 16 29.4118 16 25 C 16 20.5881 19.587724 17 23 17 z M 24.65625 18.125 C 24.65175 18.16 24.66025 18.1485 24.65625 18.1875 C 24.584821 18.8661 24.20536 18.428 24.0625 18.5 C 23.919643 18.5715 22.96875 19.8929 22.96875 19.75 C 22.96875 19.6071 23.15625 19.40625 23.15625 19.40625 C 23.15625 19.40625 23.207387 18.80285 23.09375 18.15625 C 22.783164 18.19655 22.483795 18.2325 22.1875 18.3125 L 21.25 19.84375 C 21.329853 19.85575 21.428126 19.8785 21.53125 19.9375 C 22.031251 20.2233 22.232141 20.49625 22.375 20.53125 C 22.517859 20.56735 23.151788 19.6609 22.6875 20.625 C 22.223214 21.5894 22.004466 21.9106 21.46875 22.125 C 21.43527 22.135 21.40809 22.14025 21.375 22.15625 C 21.238114 22.32035 21.043994 22.4815 20.8125 22.6875 C 20.307425 23.1379 20.0625 23.20635 20.0625 23.65625 C 20.0625 24.10635 20.072303 24.4624 19.71875 25.0625 C 19.365199 25.6625 19.129725 25.64355 19.28125 26.09375 C 19.432777 26.54375 19.533789 27.35 19.28125 27 C 19.02871 26.6501 19.139532 25.94415 18.9375 26.34375 C 18.760723 26.69395 18.34428 26.8279 18.3125 27.1875 C 18.308 27.2368 18.29982 27.28075 18.3125 27.34375 C 18.31503 27.35375 18.3091 27.359 18.3125 27.375 C 18.442138 27.8078 19.1875 27.2209 19.1875 27.5625 C 19.1875 27.9123 18.535974 27.8874 18.6875 28.1875 C 18.839023 28.4873 19.432425 27.6006 19.9375 27.75 C 20.442571 27.9 20.107931 27.9874 20.5625 28.1875 C 21.017067 28.3876 21.28125 28.60625 21.28125 28.90625 C 21.28125 29.20635 22.714026 29.0623 22.5625 29.5625 C 22.410978 30.0625 22.267069 29.9501 21.8125 30.5 C 21.562084 30.8031 21.334387 30.9789 21.1875 31.125 C 21.393414 31.2757 21.44643 31.36125 21.6875 31.28125 C 22.008922 31.17425 21.593747 31.0178 21.84375 30.875 C 21.906248 30.839 21.93192 30.81225 21.96875 30.78125 C 22.00558 30.75125 22.04911 30.7105 22.125 30.6875 C 22.276787 30.6425 22.58482 30.625 23.28125 30.625 C 24.674105 30.625 25.34375 30.6875 25.34375 30.6875 C 25.34375 30.6875 25.803574 30.687 25.375 30.9375 C 25.061814 31.1199 24.42367 31.44425 24.34375 31.53125 C 24.375134 31.52825 24.45089 31.523 24.53125 31.5 C 25.174107 31.3213 26.0625 31.16575 26.3125 31.09375 C 26.418429 31.06365 26.979666 30.7704 27.4375 30.5625 C 27.45617 30.5192 27.44993 30.4805 27.46875 30.4375 L 27.4375 30.4375 C 27.083946 30.2862 26.805227 29.60825 26.90625 29.40625 C 27.007264 29.20425 27.24746 29.03635 27.5 28.53125 C 27.752539 28.02595 27.707107 28.37775 27 27.46875 C 26.292894 26.55945 25.916055 27.52165 25.5625 27.21875 C 25.208947 26.91565 24.490545 26.64935 24.1875 26.09375 C 23.884449 25.53795 24.03125 25.94995 24.03125 25.34375 C 24.03125 24.73675 23.973475 25.193 24.125 24.6875 C 24.276522 24.1828 24.682423 24.13495 25.1875 23.78125 C 25.256946 23.73115 25.33564 23.7225 25.40625 23.6875 C 25.293089 23.58 25.127969 23.34675 24.8125 23.03125 C 24.8125 23.03125 25.122461 22.38245 25.375 22.28125 C 25.62011 22.18455 25.761876 22.2175 26.09375 22.3125 C 26.10784 22.2583 26.1096 22.2487 26.125 22.125 C 26.175504 21.721 25.96875 21.9399 25.96875 21.6875 C 25.96875 21.4349 26.083948 21.69495 26.4375 21.59375 C 26.791056 21.49275 26.802696 20.80505 27.15625 20.90625 C 27.509803 21.00735 27.509454 20.767 27.8125 20.3125 C 28.115547 19.8572 27.810313 20.10825 27.40625 19.90625 C 27.002189 19.70415 27.351024 20.2092 27.25 20.5625 C 27.148986 20.916 26.853553 20.695 26.5 19.9375 C 26.14645 19.1799 26.454219 19.4809 26.65625 18.875 C 26.691607 18.7686 26.73069 18.71925 26.78125 18.65625 C 26.124406 18.37045 25.401925 18.194 24.65625 18.125 z M 26 20.8125 C 26.153891 20.8361 26.26799 21.00545 26.34375 21.15625 C 26.38415 21.23845 26.35937 21.26225 26.3125 21.28125 C 26.3125 21.28125 26.375 21.45 26.375 21.5 C 26.375 21.55 26.27116 21.53175 26.03125 21.46875 C 25.851327 21.42215 25.971817 21.4025 26.09375 21.3125 L 25.875 21.3125 C 25.786609 21.3125 25.74004 21.29725 25.71875 21.28125 C 25.73219 21.29225 25.72815 21.2865 25.75 21.3125 C 25.77841 21.34725 25.779505 21.364344 25.78125 21.375 C 25.743813 21.37175 25.644575 21.3565 25.5625 21.375 C 25.398358 21.4129 25.5805 21.29595 25.65625 21.15625 C 25.65625 21.15625 25.69997 21.18675 25.71875 21.21875 C 25.75031 21.14925 25.8125 21.02055 25.8125 20.84375 C 25.875627 20.81765 25.94871 20.7965 26 20.8125 z M 29.8125 21.25 C 29.560054 21.4373 29.234426 21.8592 28.96875 22.125 C 28.514182 22.5789 29.216211 22.6365 29.46875 22.6875 C 29.721289 22.7385 29.963672 22.5625 30.46875 22.5625 C 30.4598 22.5385 30.4468 22.524 30.4375 22.5 C 30.369161 22.508 30.30155 22.53125 30.21875 22.53125 C 29.922594 22.53125 30.11796 22.24715 30.1875 21.84375 C 30.082079 21.63725 29.937417 21.4441 29.8125 21.25 z M 26.6875 22.1875 C 26.581023 22.1552 26.41132 22.2641 26.21875 22.375 C 26.355476 22.5744 25.939721 23.13325 25.71875 23.53125 C 25.70989 23.54125 25.6957 23.5465 25.6875 23.5625 C 26.120641 23.4901 26.801583 23.59115 28.3125 23.96875 C 28.3125 23.96875 28.867729 23.82945 28.96875 24.03125 C 29.004638 24.10155 29.206345 24.14025 29.4375 24.15625 C 30.048035 23.91565 29.71875 23.70565 29.71875 23.21875 C 29.71875 22.71375 28.961477 23.28365 29.0625 23.03125 C 29.163517 22.77875 28.947304 22.791 28.59375 22.4375 C 28.240196 22.0839 28.315037 23.3148 28.0625 23.0625 C 27.809959 22.8124 27.788522 23.0145 27.6875 22.8125 C 27.586486 22.6104 27.25 22.28125 27.25 22.28125 C 27.25 22.28125 27.48801 22.5572 27.4375 23.0625 C 27.386992 23.5673 26.6875 23.125 26.6875 23.125 C 26.6875 23.125 26.797968 23.08125 27 23.03125 C 27.20203 22.98065 26.964026 22.6662 26.8125 22.3125 C 26.774632 22.2264 26.73405 22.2025 26.6875 22.1875 z M 30.9375 24.6875 C 30.881371 24.7285 30.78821 24.7865 30.71875 24.8125 C 30.163165 25.0146 29.78125 25.4375 29.78125 25.4375 C 29.78125 25.4375 30.420589 25.43945 30.875 25.84375 C 30.90796 25.56855 30.9375 25.2843 30.9375 25 C 30.9375 24.8974 30.942 24.7886 30.9375 24.6875 z "
       transform="translate(0,1004.3622)"
       id="path3912" />
  </g>
</svg>

<!-- Created with Inkscape (http://www.inkscape.org/) -->
<svg xmlns="http://www.w3.org/2000/svg" viewBox="0 0 48 48">
 <g transform="translate(0,-1004.3622)">
  <path d="m 5.188 8 c -0.676 0.144 -1.203 0.809 -1.188 1.5 l 0 28 c 0 0.785 0.715 1.5 1.5 1.5 l 37 0 c 0.785 0 1.5 -0.715 1.5 -1.5 l 0 -24.969 c 0 -0.785 -0.715 -1.5 -1.5 -1.5 l -14.5 0 l 0 -1.531 c 0 -0.785 -0.715 -1.5 -1.5 -1.5 l -21 0 c -0.104 -0.011 -0.209 -0.011 -0.313 0 z m 17.813 9 l 1 0 c 4.412 0 8 3.588 8 8 c 0 4.412 -3.588 8 -9 8 c -3.412 0 -7 -3.588 -7 -8 c 0 -4.412 3.588 -8 7 -8 z m 1.656 1.125 c -0.005 0.035 0.004 0.023 0 0.063 c -0.071 0.679 -0.451 0.241 -0.594 0.313 c -0.143 0.072 -1.094 1.393 -1.094 1.25 c 0 -0.143 0.188 -0.344 0.188 -0.344 c 0 0 0.051 -0.603 -0.063 -1.25 c -0.311 0.04 -0.61 0.076 -0.906 0.156 l -0.938 1.531 c 0.08 0.012 0.178 0.035 0.281 0.094 c 0.5 0.286 0.701 0.559 0.844 0.594 c 0.143 0.036 0.777 -0.87 0.313 0.094 c -0.464 0.964 -0.683 1.286 -1.219 1.5 c -0.033 0.01 -0.061 0.015 -0.094 0.031 c -0.137 0.164 -0.331 0.325 -0.563 0.531 c -0.505 0.45 -0.75 0.519 -0.75 0.969 c 0 0.45 0.01 0.806 -0.344 1.406 c -0.354 0.6 -0.589 0.581 -0.438 1.031 c 0.152 0.45 0.253 1.256 0 0.906 c -0.253 -0.35 -0.142 -1.056 -0.344 -0.656 c -0.177 0.35 -0.593 0.484 -0.625 0.844 c -0.005 0.049 -0.013 0.093 0 0.156 c 0.003 0.01 -0.003 0.015 0 0.031 c 0.13 0.433 0.875 -0.154 0.875 0.188 c 0 0.35 -0.652 0.325 -0.5 0.625 c 0.152 0.3 0.745 -0.587 1.25 -0.438 c 0.505 0.15 0.17 0.237 0.625 0.438 c 0.455 0.2 0.719 0.419 0.719 0.719 c 0 0.3 1.433 0.156 1.281 0.656 c -0.152 0.5 -0.295 0.388 -0.75 0.938 c -0.25 0.303 -0.478 0.479 -0.625 0.625 c 0.206 0.151 0.259 0.236 0.5 0.156 c 0.321 -0.107 -0.094 -0.263 0.156 -0.406 c 0.062 -0.036 0.088 -0.063 0.125 -0.094 c 0.037 -0.03 0.08 -0.071 0.156 -0.094 c 0.152 -0.045 0.46 -0.063 1.156 -0.063 c 1.393 0 2.063 0.063 2.063 0.063 c 0 0 0.46 0 0.031 0.25 c -0.313 0.182 -0.951 0.507 -1.031 0.594 c 0.031 -0.003 0.107 -0.008 0.188 -0.031 c 0.643 -0.179 1.531 -0.334 1.781 -0.406 c 0.106 -0.03 0.667 -0.323 1.125 -0.531 c 0.019 -0.043 0.012 -0.082 0.031 -0.125 l -0.031 0 c -0.354 -0.151 -0.632 -0.829 -0.531 -1.031 c 0.101 -0.202 0.341 -0.37 0.594 -0.875 c 0.253 -0.505 0.207 -0.154 -0.5 -1.063 c -0.707 -0.909 -1.084 0.053 -1.438 -0.25 c -0.354 -0.303 -1.072 -0.569 -1.375 -1.125 c -0.303 -0.556 -0.156 -0.144 -0.156 -0.75 c 0 -0.607 -0.058 -0.151 0.094 -0.656 c 0.152 -0.505 0.557 -0.553 1.063 -0.906 c 0.069 -0.05 0.148 -0.059 0.219 -0.094 c -0.113 -0.108 -0.278 -0.341 -0.594 -0.656 c 0 0 0.31 -0.649 0.563 -0.75 c 0.245 -0.097 0.387 -0.064 0.719 0.031 c 0.014 -0.054 0.016 -0.064 0.031 -0.188 c 0.051 -0.404 -0.156 -0.185 -0.156 -0.438 c 0 -0.253 0.115 0.007 0.469 -0.094 c 0.354 -0.101 0.365 -0.789 0.719 -0.688 c 0.354 0.101 0.353 -0.139 0.656 -0.594 c 0.303 -0.455 -0.002 -0.204 -0.406 -0.406 c -0.404 -0.202 -0.055 0.303 -0.156 0.656 c -0.101 0.354 -0.396 0.133 -0.75 -0.625 c -0.354 -0.758 -0.046 -0.457 0.156 -1.063 c 0.035 -0.106 0.074 -0.156 0.125 -0.219 c -0.657 -0.286 -1.379 -0.462 -2.125 -0.531 z m 1.344 2.688 c 0.154 0.024 0.268 0.193 0.344 0.344 c 0.04 0.082 0.016 0.106 -0.031 0.125 c 0 0 0.063 0.169 0.063 0.219 c 0 0.05 -0.104 0.032 -0.344 -0.031 c -0.18 -0.047 -0.059 -0.066 0.063 -0.156 l -0.219 0 c -0.088 0 -0.135 -0.015 -0.156 -0.031 c 0.013 0.011 0.009 0.005 0.031 0.031 c 0.028 0.035 0.03 0.052 0.031 0.063 c -0.037 -0.003 -0.137 -0.018 -0.219 0 c -0.164 0.038 0.018 -0.079 0.094 -0.219 c 0 0 0.044 0.03 0.063 0.063 c 0.032 -0.07 0.094 -0.198 0.094 -0.375 c 0.063 -0.026 0.136 -0.047 0.188 -0.031 z m 3.813 0.438 c -0.252 0.187 -0.578 0.609 -0.844 0.875 c -0.455 0.454 0.247 0.512 0.5 0.563 c 0.253 0.051 0.495 -0.125 1 -0.125 c -0.009 -0.024 -0.022 -0.038 -0.031 -0.063 c -0.068 0.008 -0.136 0.031 -0.219 0.031 c -0.296 0 -0.101 -0.284 -0.031 -0.688 c -0.105 -0.206 -0.25 -0.4 -0.375 -0.594 z m -3.125 0.938 c -0.106 -0.032 -0.276 0.077 -0.469 0.188 c 0.137 0.199 -0.279 0.758 -0.5 1.156 c -0.009 0.01 -0.023 0.015 -0.031 0.031 c 0.433 -0.072 1.114 0.029 2.625 0.406 c 0 0 0.555 -0.139 0.656 0.063 c 0.036 0.07 0.238 0.109 0.469 0.125 c 0.611 -0.241 0.281 -0.451 0.281 -0.938 c 0 -0.505 -0.757 0.065 -0.656 -0.188 c 0.101 -0.253 -0.115 -0.24 -0.469 -0.594 c -0.354 -0.354 -0.279 0.877 -0.531 0.625 c -0.253 -0.25 -0.274 -0.048 -0.375 -0.25 c -0.101 -0.202 -0.438 -0.531 -0.438 -0.531 c 0 0 0.238 0.276 0.188 0.781 c -0.051 0.505 -0.75 0.063 -0.75 0.063 c 0 0 0.11 -0.044 0.313 -0.094 c 0.202 -0.051 -0.036 -0.365 -0.188 -0.719 c -0.038 -0.086 -0.078 -0.11 -0.125 -0.125 z m 4.25 2.5 c -0.056 0.041 -0.149 0.099 -0.219 0.125 c -0.556 0.202 -0.938 0.625 -0.938 0.625 c 0 0 0.639 0.002 1.094 0.406 c 0.033 -0.275 0.063 -0.559 0.063 -0.844 c 0 -0.103 0.005 -0.211 0 -0.313 z" transform="translate(0,1004.3622)" style="visibility:visible;fill:#bdbdbd;fill-opacity:1;stroke:none;display:inline;color:#000;fill-rule:nonzero"/>
 </g>
</svg>
